!!!OTL: Bai Raedder Ohne Text
!!!ARE: Europa, Mitteleuropa, Deutschland (BRD), Nordsee, Foehr
!!!YOR: 3, S. 282
!!    1924 aufgezeichnet
!!!SCT: Q0071C
!!!YEM: Copyright 1995, estate of Helmut Schaffrath.
**kern
*ICvox
*M4/4
*met(c)
*k[f#]
*G:
{4d
=1
4g
4g
4g
4g
=2
4g
4e
4d}
{4d
=3
4e
4e
4f#
4c
=4
2.g}
{4d
=5
4g
4g
4g
4g
=6
4g
4e
2d
=7
4g
4e
2d
=8
4g
4e
2d}
=9
{4e
4e
4f#
4c
=10
2.g}
==
!!!AGN: Ballade, Verleumdung, Moral, Mord
!! Ohne Textunterlegung. Phraseneinteilung etwas unklar.
!!!ONB: ESAC (Essen Associative Code) Database: BALLADE
!!!AMT: simple quadruple
!!!AIN: vox
!!!EED: Helmut Schaffrath
!!!EEV: 1.0
!!!source: Deutsche Volkslieder mit ihren Melodien. Herausgegeben vom Deutschen Volksliedarchiv. Dritter Band Balladen. Berlin 1954.
!!!page: 282
!!!ENC: Anna Maria Matuszewska
!!!EEV: 2025/02/21
*-
